_site/images/homepage/icon-file.svg

<svg fill="none" height="22" viewBox="0 0 17 22" width="17" xmlns="http://www.w3.org/2000/svg"><path clip-rule="evenodd" d="m17 7.47206c-.0111-.09891-.0324-.19635-.0638-.29069v-.0969c-.051-.1107-.1192-.21246-.2018-.30147l-6.375-6.460002c-.0879-.08374-.1883-.152801-.2975-.204559-.0317-.004578-.06393-.004578-.09565 0-.10793-.0627292-.22714-.1029971-.35062-.118439h-6.42813c-1.76041 0-3.1875 1.44612-3.1875 3.23v15.0733c0 1.7839 1.42709 3.23 3.1875 3.23h10.625c1.7604 0 3.1875-1.4461 3.1875-3.23v-10.76663zm-10.62393 1.14124h-1.0625c-.5868 0-1.0625-.48204-1.0625-1.07668 0-.59462.4757-1.07666 1.0625-1.07666h1.0625c.5868 0 1.0625.48204 1.0625 1.07666 0 .59464-.4757 1.07668-1.0625 1.07668zm-2.125 3.23c0-.5947.4757-1.0767 1.0625-1.0767h6.37503c.5868 0 1.0625.482 1.0625 1.0767 0 .5946-.4757 1.0766-1.0625 1.0766h-6.37503c-.5868 0-1.0625-.482-1.0625-1.0766zm9.12713-5.38311-2.7519-2.78856v1.7119c0 .59462.4757 1.07666 1.0625 1.07666zm1.4987 11.84311c0 .5946-.4757 1.0767-1.0625 1.0767h-10.62498c-.5868 0-1.0625-.4821-1.0625-1.0767v-15.07332c0-.59462.4757-1.07666 1.0625-1.07666h5.3125v3.23c0 1.78389 1.42709 3.23001 3.18748 3.23001h3.1875zm-9.56333-3.2298h6.37503c.5868 0 1.0625.482 1.0625 1.0766 0 .5947-.4757 1.0767-1.0625 1.0767h-6.37503c-.5868 0-1.0625-.482-1.0625-1.0767 0-.5946.4757-1.0766 1.0625-1.0766z" fill="#65a2fd" fill-rule="evenodd"/></svg>

<svg width="17" height="22" viewBox="0 0 17 22" fill="none" xmlns="http://www.w3.org/2000/svg">
<path fill-rule="evenodd" clip-rule="evenodd" d="M17 7.47206C16.9889 7.37315 16.9676 7.27571 16.9362 7.18137V7.08447C16.8852 6.97377 16.817 6.87201 16.7344 6.783L10.3594 0.322998C10.2715 0.239258 10.1711 0.170197 10.0619 0.118439C10.0302 0.113861 9.99797 0.113861 9.96625 0.118439C9.85832 0.0557098 9.73911 0.0154419 9.61563 0H3.1875C1.42709 0 0 1.44612 0 3.23V18.3033C0 20.0872 1.42709 21.5333 3.1875 21.5333H13.8125C15.5729 21.5333 17 20.0872 17 18.3033V7.53667V7.47206ZM6.37607 8.6133H5.31357C4.72677 8.6133 4.25107 8.13126 4.25107 7.53662C4.25107 6.942 4.72677 6.45996 5.31357 6.45996H6.37607C6.96287 6.45996 7.43857 6.942 7.43857 7.53662C7.43857 8.13126 6.96287 8.6133 6.37607 8.6133ZM4.25107 11.8433C4.25107 11.2486 4.72677 10.7666 5.31357 10.7666H11.6886C12.2754 10.7666 12.7511 11.2486 12.7511 11.8433C12.7511 12.4379 12.2754 12.9199 11.6886 12.9199H5.31357C4.72677 12.9199 4.25107 12.4379 4.25107 11.8433ZM13.3782 6.46019L10.6263 3.67163V5.38353C10.6263 5.97815 11.102 6.46019 11.6888 6.46019H13.3782ZM14.8769 18.3033C14.8769 18.8979 14.4012 19.38 13.8144 19.38H3.18942C2.60262 19.38 2.12692 18.8979 2.12692 18.3033V3.22998C2.12692 2.63536 2.60262 2.15332 3.18942 2.15332H8.50192V5.38332C8.50192 7.16721 9.92901 8.61333 11.6894 8.61333H14.8769V18.3033ZM5.31357 15.0735H11.6886C12.2754 15.0735 12.7511 15.5555 12.7511 16.1501C12.7511 16.7448 12.2754 17.2268 11.6886 17.2268H5.31357C4.72677 17.2268 4.25107 16.7448 4.25107 16.1501C4.25107 15.5555 4.72677 15.0735 5.31357 15.0735Z" fill="#65A2FD"/>
</svg>
